packages/kaspersky-hexa-ui-icons/src/iconsSVGs/16x12/FlagBi.svg

<svg width="16" height="12" viewBox="0 0 16 12" fill="none" xmlns="http://www.w3.org/2000/svg">
<g clip-path="url(#clip0_41812_2778)">
<mask id="mask0_41812_2778" style="mask-type:luminance" maskUnits="userSpaceOnUse" x="0" y="0" width="16" height="12">
<rect width="16" height="12" rx="2" fill="white"/>
</mask>
<g mask="url(#mask0_41812_2778)">
<rect width="16" height="12" fill="#E4233B"/>
<path fill-rule="evenodd" clip-rule="evenodd" d="M0 0L6.85714 6L0 12V0Z" fill="#34CD4E"/>
<path fill-rule="evenodd" clip-rule="evenodd" d="M16 0L9.14286 6L16 12V0Z" fill="#34CD4E"/>
<path d="M17.5847 0.176331L10.5447 5.16168C10.6237 5.42627 10.6667 5.70765 10.6667 5.99957C10.6667 6.29103 10.6234 6.57226 10.5447 6.83649L17.5847 11.8238L16.7332 13.15L9.69214 8.16266C9.23167 8.56036 8.64253 8.80035 7.99976 8.80035C7.35669 8.8003 6.76693 8.56073 6.3064 8.16266L-0.732666 13.15L-1.58521 11.8238L5.45386 6.83649C5.37524 6.57238 5.33374 6.29089 5.33374 5.99957C5.33378 5.70779 5.37495 5.42615 5.45386 5.16168L-1.58521 0.176331L-0.732666 -1.14984L6.30737 3.83551C6.76769 3.4382 7.35737 3.19982 7.99976 3.19977C8.64185 3.19977 9.23091 3.43857 9.69116 3.83551L16.7332 -1.14984L17.5847 0.176331Z" fill="white"/>
<path d="M7.23792 6.80035L7.39612 7.36578L6.85706 7.19977L6.31799 7.36578L6.4762 6.80035L6.31799 6.23395L6.85706 6.39996L7.39612 6.23395L7.23792 6.80035ZM9.52405 6.80035L9.68127 7.36578L9.14319 7.19977L8.60413 7.36578L8.76233 6.80035L8.60413 6.23395L9.14319 6.39996L9.68127 6.23395L9.52405 6.80035ZM8.38147 4.80035L8.5387 5.36578L7.99963 5.19977L7.46155 5.36578L7.61877 4.80035L7.46155 4.23395L7.99963 4.39996L8.5387 4.23395L8.38147 4.80035Z" fill="#DF2239"/>
</g>
</g>
<defs>
<clipPath id="clip0_41812_2778">
<rect width="16" height="12" fill="white"/>
</clipPath>
</defs>
</svg>

<svg xmlns="http://www.w3.org/2000/svg" width="16" height="12" fill="none" viewBox="0 0 16 12"><g clip-path="url(#a)"><mask id="b" width="16" height="12" x="0" y="0" maskUnits="userSpaceOnUse" style="mask-type:luminance"><rect width="16" height="12" fill="#fff" rx="2"/></mask><g mask="url(#b)"><path fill="#e4233b" d="M0 0h16v12H0z"/><path fill="#34cd4e" fill-rule="evenodd" d="m0 0 6.857 6L0 12zm16 0L9.143 6 16 12z" clip-rule="evenodd"/><path fill="#fff" d="m17.5847.1763-7.04 4.9854c.079.2646.122.546.122.8379 0 .2914-.0433.5727-.122.8369l7.04 4.9873-.8515 1.3262-7.041-4.9873c-.4605.3977-1.0497.6377-1.6924.6377-.6431-.0001-1.2329-.2397-1.6934-.6377L-.7326 13.15l-.8526-1.3262 7.039-4.9873a2.93 2.93 0 0 1-.12-.837c0-.2917.0412-.5734.12-.8378L-1.5851.1763l.8525-1.3261 7.04 4.9853c.4604-.3973 1.05-.6357 1.6925-.6357.642 0 1.2311.2388 1.6914.6357l7.042-4.9853z"/><path fill="#df2239" d="m7.238 6.8004.1581.5654-.539-.166-.5391.166.1582-.5655-.1582-.5663.539.166.5391-.166zm2.286 0 .1573.5654-.5381-.166-.539.166.1581-.5655-.1582-.5663.539.166.5382-.166zm-1.1425-2 .1572.5654-.539-.166-.5381.166.1572-.5655-.1573-.5663.5381.166.5391-.166z"/></g></g><defs><clipPath id="a"><path fill="#fff" d="M0 0h16v12H0z"/></clipPath></defs></svg>
